icons/out/24/logout.svg

<svg viewBox="0 0 24 24" xmlns="http://www.w3.org/2000/svg"><path d="m14.64 20.34a.75.75 0 0 1 -.75.75h-6.63a3.13 3.13 0 0 1 -3.13-3.09v-12a3.13 3.13 0 0 1 3.13-3.09h6.63a.75.75 0 0 1 0 1.5h-6.63a1.63 1.63 0 0 0 -1.63 1.59v12a1.63 1.63 0 0 0 1.63 1.63h6.63a.74.74 0 0 1 .75.71zm5-8.87-3.5-3.47a.75.75 0 1 0 -1.06 1l2.23 2.23h-6.91a.75.75 0 1 0 0 1.5h6.91l-2.23 2.27a.75.75 0 0 0 0 1.06.79.79 0 0 0 .53.22.77.77 0 0 0 .53-.22l3.51-3.51a.75.75 0 0 0 0-1.08z"/></svg>

<svg xmlns="http://www.w3.org/2000/svg" viewBox="0 0 24 24"><path d="M14.64 20.34a.75.75 0 01-.75.75H7.26A3.13 3.13 0 014.13 18V6a3.13 3.13 0 013.13-3.09h6.63a.75.75 0 010 1.5H7.26A1.63 1.63 0 005.63 6v12a1.63 1.63 0 001.63 1.63h6.63a.74.74 0 01.75.71zm5-8.87L16.14 8a.75.75 0 10-1.06 1l2.23 2.23H10.4a.75.75 0 100 1.5h6.91L15.08 15a.75.75 0 000 1.06.79.79 0 00.53.22.77.77 0 00.53-.22l3.51-3.51a.75.75 0 000-1.08z"/></svg>
